resources/icons/wallets/exodus.svg

<svg width="211" height="212" viewBox="0 0 211 212" fill="none" xmlns="http://www.w3.org/2000/svg">
<rect y="0.629639" width="211" height="211" rx="8" fill="#E5E5FF"/>
<path d="M134.297 107.88L174.71 148.23H160.397C157.871 148.23 155.767 147.389 154.083 145.708L116.616 107.88L154.083 70.4718C155.767 68.7906 158.292 67.95 160.397 67.95H174.71L134.297 107.88ZM60.6275 70.4718C58.9436 68.7906 56.4178 67.95 54.313 67.95H40L80.413 107.88L40 148.23H54.313C56.8388 148.23 58.9436 147.389 60.6275 145.708L98.0938 108.3C98.0938 107.88 60.6275 70.4718 60.6275 70.4718ZM107.355 117.127L69.8888 154.534C68.2049 156.216 67.363 158.737 67.363 160.839V175.13L107.776 134.78L148.189 175.13V160.839C148.189 158.317 147.347 156.216 145.663 154.534L107.355 117.127ZM107.355 98.6328L144.821 61.225C146.505 59.5437 147.347 57.0218 147.347 54.9203V40.6296L107.355 80.9796L66.942 40.6296V54.9203C66.942 57.4421 67.784 59.5437 69.4678 61.225L107.355 98.6328Z" fill="url(#paint0_linear_2307_45961)"/>
<defs>
<linearGradient id="paint0_linear_2307_45961" x1="39.9585" y1="107.88" x2="174.77" y2="107.88" gradientUnits="userSpaceOnUse">
<stop stop-color="#00BFFF"/>
<stop offset="1" stop-color="#6619FF"/>
</linearGradient>
</defs>
</svg>

<svg width="211" height="212" fill="none" xmlns="http://www.w3.org/2000/svg"><rect y=".63" width="211" height="211" rx="8" fill="#E5E5FF"/><path d="m134.297 107.88 40.413 40.35h-14.313c-2.526 0-4.63-.841-6.314-2.522l-37.467-37.828 37.467-37.408c1.684-1.681 4.209-2.522 6.314-2.522h14.313l-40.413 39.93Zm-73.67-37.408c-1.683-1.681-4.21-2.522-6.314-2.522H40l40.413 39.93L40 148.23h14.313c2.526 0 4.63-.841 6.314-2.522L98.094 108.3c0-.42-37.466-37.828-37.466-37.828Zm46.728 46.655-37.466 37.407c-1.684 1.682-2.526 4.203-2.526 6.305v14.291l40.413-40.35 40.413 40.35v-14.291c0-2.522-.842-4.623-2.526-6.305l-38.308-37.407Zm0-18.494 37.466-37.408c1.684-1.681 2.526-4.203 2.526-6.305V40.63l-39.992 40.35-40.413-40.35v14.29c0 2.522.842 4.624 2.526 6.305l37.887 37.408Z" fill="url(#a)"/><defs><linearGradient id="a" x1="39.959" y1="107.88" x2="174.77" y2="107.88" gradientUnits="userSpaceOnUse"><stop stop-color="#00BFFF"/><stop offset="1" stop-color="#6619FF"/></linearGradient></defs></svg>
